assets/icons/network/wireless/no-route.svg

<?xml version="1.0" encoding="UTF-8" standalone="no"?>
<svg viewBox="0 0 24 24" height="24" width="24" version="1.1" id="svg8" sodipodi:docname="wireless-no-route.svg" inkscape:version="1.1 (ce6663b3b7, 2021-05-25)"
   xmlns:inkscape="http://www.inkscape.org/namespaces/inkscape"
   xmlns:sodipodi="http://sodipodi.sourceforge.net/DTD/sodipodi-0.dtd"
   xmlns="http://www.w3.org/2000/svg"
   xmlns:svg="http://www.w3.org/2000/svg">
   <defs id="defs12" />
   <sodipodi:namedview id="namedview10" pagecolor="#ffffff" bordercolor="#666666" borderopacity="1.0" inkscape:pageshadow="2" inkscape:pageopacity="0.0" inkscape:pagecheckerboard="0" showgrid="true" inkscape:snap-page="true" inkscape:zoom="28" inkscape:cx="8.0178571" inkscape:cy="13.214286" inkscape:window-width="1920" inkscape:window-height="1043" inkscape:window-x="1920" inkscape:window-y="0" inkscape:window-maximized="1" inkscape:current-layer="svg8" width="16px">
      <inkscape:grid type="xygrid" id="grid1179" />
   </sodipodi:namedview>
   <path id="path1214" style="color:#000000;fill:#808080;-inkscape-stroke:none;fill-opacity:1" d="M 14.556641 5.7988281 C 14.560041 5.8021471 14.561053 5.8072069 14.564453 5.8105469 C 14.565453 5.8115953 14.567259 5.81145 14.568359 5.8125 L 14.556641 5.7988281 z M 16.880859 6.0996094 C 16.929623 6.2232453 16.972829 6.3496343 17.007812 6.4785156 C 17.028633 6.54633 17.046323 6.6138013 17.064453 6.6816406 C 19.353381 7.599602 20.516401 8.8860023 20.648438 9.0351562 L 13.992188 17.171875 C 14.081388 17.341695 14.14986 17.523023 14.197266 17.708984 L 21.326172 8.9960938 L 21.189453 8.8378906 C 21.189453 8.8378906 19.743934 7.160569 16.880859 6.0996094 z M 7.1054688 6.1054688 C 4.2517742 7.1667013 2.8105469 8.8378906 2.8105469 8.8378906 L 2.6738281 8.9960938 L 2.8066406 9.1582031 L 9.8007812 17.707031 C 9.8466963 17.519766 9.9164572 17.339724 10.007812 17.169922 L 3.3515625 9.0351562 C 3.4917449 8.8768008 4.7948919 7.4377612 7.3730469 6.5175781 L 7.1054688 6.1054688 z " />
   <path d="m 12.33875,4.54625 c -0.66625,0 -1.29625,0.07625 -1.89,0.22875 a 7.31625,7.31625 0 0 0 -1.45875,0.5575 l -0.8225,0.5725 0.7075,1.095 0.565,-0.42 c 0.86,-0.4375 1.7425,-0.675 2.645,-0.675 0.75875,0 1.3625,0.2 1.77625,0.61375 0.40875,0.395 0.61625,0.92125 0.61625,1.545 0,0.38875 -0.09125,0.75375 -0.27125,1.085 -0.1625,0.3225 -0.37375,0.62875 -0.635,0.92 -0.25625,0.28375 -0.525,0.56875 -0.81,0.8525 v 0.0012 c -0.2775,0.26375 -0.54125,0.555 -0.79125,0.875 v 0.0025 a 4.575,4.575 0 0 0 -0.615,0.9825 2.9725,2.9725 0 0 0 -0.22125,1.16875 c 0,0.26 0.03,0.50375 0.07,0.7425 h 1.36 c -0.0013,-0.02875 -0.0125,-0.055 -0.0125,-0.085 v -0.23375 c 0,-0.48375 0.09625,-0.925 0.29,-1.3125 0.1875,-0.3925 0.42,-0.74875 0.69625,-1.06875 v -0.0025 c 0.2725,-0.33 0.5725,-0.64375 0.90125,-0.94375 a 9.0375,9.0375 0 0 0 0.875,-0.9175 c 0.2625,-0.31625 0.48,-0.6525 0.65875,-1.00875 0.1725,-0.36 0.26125,-0.76625 0.26125,-1.2275 0,-0.365 -0.06,-0.74625 -0.18375,-1.1425 l -0.0013,-0.0025 v -0.0025 a 2.55,2.55 0 0 0 -0.6025,-1.08375 c -0.2925,-0.31875 -0.69,-0.5825 -1.19625,-0.7875 v -0.0025 c -0.48125,-0.215 -1.11875,-0.32625 -1.91,-0.32625 z m -0.3375,12.45375 c -0.4075,0 -0.7025,0.125 -0.92875,0.375 a 1.28125,1.28125 0 0 0 -0.34375,0.8975 c 0,0.34875 0.11125,0.64 0.34375,0.8975 0.225,0.25 0.52125,0.375 0.9275,0.375 0.40625,0 0.7025,-0.12375 0.92875,-0.375 0.2325,-0.2575 0.34375,-0.55 0.34375,-0.8975 0,-0.35 -0.11125,-0.64 -0.34375,-0.8975 -0.225,-0.25 -0.5225,-0.375 -0.92875,-0.375 z" fill="#808080" font-family="Ubuntu" font-size="72.036px" font-weight="500" letter-spacing="0" style="line-height:125%;-inkscape-font-specification:'Ubuntu Medium';text-align:center;stroke-width:0.8" text-anchor="middle" word-spacing="0" id="path4" />
</svg>

<svg height="24" width="24" xmlns="http://www.w3.org/2000/svg"><path style="color:#000;fill:gray;-inkscape-stroke:none;fill-opacity:1" d="M14.557 5.799c.003.003.004.008.007.012.001 0 .003 0 .004.002l-.011-.014zm2.324.3c.049.124.092.25.127.38.02.067.038.135.056.203 2.29.918 3.452 2.204 3.584 2.353l-6.656 8.137c.09.17.158.351.205.537l7.13-8.713-.138-.158S19.744 7.16 16.881 6.1zm-9.776.006C4.252 7.167 2.811 8.838 2.811 8.838l-.137.158.133.162L9.8 17.707a2.26 2.26 0 0 1 .207-.537L3.352 9.035c.14-.158 1.443-1.597 4.021-2.517l-.268-.413z"/><path d="M12.339 4.546a7.54 7.54 0 0 0-1.89.229 7.316 7.316 0 0 0-1.459.557l-.823.573L8.875 7l.565-.42c.86-.438 1.742-.675 2.645-.675.759 0 1.362.2 1.776.614.409.395.616.921.616 1.545 0 .388-.09.753-.27 1.085a4.223 4.223 0 0 1-.636.92c-.256.283-.525.568-.81.852v.001a7.99 7.99 0 0 0-.791.875v.003a4.575 4.575 0 0 0-.615.982 2.973 2.973 0 0 0-.221 1.17c0 .26.03.503.07.742h1.36c-.002-.03-.013-.055-.013-.085v-.234c0-.484.096-.925.29-1.313.188-.392.42-.748.696-1.068v-.003c.273-.33.573-.644.902-.944a9.037 9.037 0 0 0 .875-.917c.262-.316.48-.653.658-1.009a2.79 2.79 0 0 0 .262-1.227c0-.365-.06-.747-.184-1.143l-.001-.002v-.003a2.55 2.55 0 0 0-.603-1.084c-.292-.318-.69-.582-1.196-.787v-.003c-.481-.215-1.119-.326-1.91-.326zM12 17c-.407 0-.702.125-.929.375a1.281 1.281 0 0 0-.343.897c0 .35.111.64.343.898.225.25.522.375.928.375s.702-.124.929-.375c.232-.258.343-.55.343-.897 0-.35-.11-.64-.343-.898-.225-.25-.523-.375-.929-.375z" fill="gray" font-family="Ubuntu" font-size="72.036" font-weight="500" letter-spacing="0" style="line-height:125%;-inkscape-font-specification:'Ubuntu Medium';text-align:center;stroke-width:.8" text-anchor="middle" word-spacing="0"/></svg>
